X:1
T:"Kozak" 
T:# / 2
%%score 1 { ( 2 5 ) | ( 3 4 ) }
L:1/8
M:2/4
K:Eb
V:1 treble nm="unbenannt"
V:2 treble nm="unbenannt2"
V:5 treble 
V:3 bass 
V:4 bass 
V:1
 z4 | z4 |: C>D EE | C>D EE | D>C =B,D | C2 C z | C>D EE | C>D EE | D>C =B,D | C2 C z | E>F GG | %11
w: ||Tam na ~gó- rze|ja- wor sto- i,|ja- wor zie- lo-|nień- ki,|Gi- nie Ko- zak|w~cu- dzej stro- nie,|Ko- zak mło- dziu-|sień- ki,|„Gi- nę, ~gi- nę,|
w: ||Przy- szedł~ oj- ciec,|~przy- szła~ mat- ka,|~przy- szła~ ma- tu-|leń- ka,|O- bró- ci- ła~|swo- je ~li- ca~|prze- ciw ~sy- na-|leń- ka.|„O tóż~ wi- dzisz,|
w: ||„Pro- szę~ mat- ko,|~pro- szę~ cie- bie,|~pięk- nie ~po- cho-|waj- cie:|Niech~ we~ wszyst- kie|~bi- ją~ dzwo- ny,|~w~or- ga- ny ~za-|graj- cie!|Nie- chaj ~tyl- ko|
 E>F GG |"^raltntando" F>E D3/2{DC}C/ | (=B,2 G2) |"^a tempo più lento" A>G FF | E>D DD | %16
w: ~w~cu- dzej~ stro- nie,|~śmierć~ mi~ o- czy|~tu- li|pro- szę cie- bie|mo- ja mi- ła|
w: ~mój ~sy- necz- ku,~|mo- je~ dro- gie|~dzie- cię!|Nie~ słu- cha- łeś~|oj- ca, ~mat- ki,|
w: ~nie ~cho- wa- ją|~po- py a- ni~|dia- ki,|Je- no~ sa- me|~u- kra- iń- skie|
 D3/2E/4F/4 ED | E2 G2 | c>G FE | E>D DD |"^lento" D3/2E/4F/4 E>D |1 C2 C3/2 z/ :|3 C3 C || z4 | %24
w: do- nieś * to ma-|tu li|pro- szę cie- bie|mo ja mi- ła,~|do- nieś~ * to ~ma-|tu- li.”|||
w: ~ta- kie * two- je|~ży- cie.”|Nie~ slu- cha- łeś|oj- ca~ mat- ki,|~ta- kiez * ~two- je~|~ży- cie."|||
w: ~grze- bią~ * mnie ~ko-|za- ki!”|Je- no~ sa- me|~u- kra- iń- skie|~grze- bią~ * mnie ~ko-|za- ki!”"|||
 z7/2 |] %25
w: |
w: |
w: |
V:2
!p! [A,C][CFA] [G,C][CEG] | [A,C][CFA] [G,C][CEG] |: [A,C][CFA] [G,C][CEG] | %3
 [A,C][CFA] [G,C][CEG] | [A,C][CFA] [G,=B,][B,DG] | C[CEG] [G,C][CEG] | [A,C][CFA] [G,C][CEG] | %7
 [A,C][CFA] [G,C][CEG] | [A,C][CFA] [G,=B,][B,DG] | C[EGc] C[EGc] | %10
!mf! [CEc][=B,E=B] [_B,G_B]>!pp!E | [CEc][=B,DF=B] ([_B,G_B]>E) | (A,/[CFA]/) z (=A,/[CD=A]/) z | %13
!>(! =B,[B,DG]!>)! z2 | z"^(a tempo più lento)"!p! [G,CEG] [G,CEG][G,CEG] | %15
 z"^to]" [A,CDF] [A,CDF][A,CDF] | z [G,=B,DF] [G,B,DF][G,B,DF] | [G,CE]2 [G,=B,FG]2 | %18
 z/ [CGc] z/ z [G,CG] | G>_G GG | F3/2G/4A/4 G>F |1 [CE][CEG] C[CEG] :|3 [CE][CEG] [A,C][CFA] || %23
 [CE][CEG] [A,C][CFA] |!pp! [CEc] z/ z2 |] %25
V:3
 [F,,C,][C,F,] E,[E,G,] | [F,,C,][C,F,] E,[E,G,] |: [F,,C,][C,F,] E,[E,G,] | %3
 [F,,C,][C,F,] E,[E,G,] | [F,,D,][D,F,] [G,,D,][D,G,] | [C,E,][E,G,] E,[E,G,] | %6
 [F,,C,][C,F,] E,[E,G,] | [F,,C,][C,F,] E,[E,G,] | [F,,D,][D,F,] [G,,D,][D,G,] | %9
 [C,E,][E,G,] E,[E,G,] | A,,[E,A,] E,,[E,G,] | A,,[E,A,] E,,[E,G,] | %12
 A,,/[C,F,]/ z (_G,,/[D,_G,]/) z | G,,[D,G,] z2 | [C,,C,]3 z | [F,,,F,,]3 z | [G,,,G,,]3 z | %17
!<(! ([C,,C,]2 [D,,D,]2)!<)! | ([E,,E,]2 E,,,2) |"^[lento]" [D,,,D,,]4 | %20
"^dolcissimo""^Kozak   (Language: Polish )\n\n1. Tam na górze jawor stoi, jawor zielonieńki,\nGinie kozak w obcej stronie, kozak młodziusieńki,\n„Ginę, ginę, w cudzej stronie, śmierć mi oczy tuli,\nProszę ciebie, moja miła, donieś to matuli.”\n\n2. Przyszedł ojciec, przyszła matka, przyszła matuleńka,\nObróciła swoje lica przeciw synaleńka.\n— „Otóż widzisz, mój syneczku, moje drogie dziecię!\nNie słuchałeś ojca, matki, takie twoje życie.”\n\n3. — „Proszę matko, proszę ciebie, pięknie pochowajcie:\nNiech we wszystkie biją dzwony, w organy zagrajcie!\nNiech mnie tylko nie chowają popy ani djaki,\nJeno same ukraińskie grzebią mnie kozaki!”\n" ([A,,,A,,]2 [G,,,G,,]2) |1 %21
 C,,"^a tempo"[C,E,] [C,E,][E,G,] :|3 C,,"^a tempo"[C,E,] F,,[C,F,] || C,,[C,E,] F,,[C,F,] | %24
 [C,G,] z/ z2 |] %25
V:4
 x2 C,2 | x2 C,2 |: x2 C,2 | x2 C,2 | x4 | x2 C,2 | x2 C,2 | x2 C,2 | x4 | x2 C,2 | x4 | x4 | x4 | %13
 x4 | x4 | x4 | x4 | x4 | x4 | x4 | x4 |1 x4 :|3 x4 || x4 | x7/2 |] %25
V:5
 x4 | x4 |: x4 | x4 | x4 | x4 | x4 | x4 | x4 | x4 | x4 | x4 | x4 | x4 | x4 | x4 | x4 | x4 | x4 | %19
 z/ [=A,C] x/ [A,C][A,C] | z/ [F,A,C] x/ z/ [G,=B,] x/ |1 x4 :|3 x4 || x4 | x7/2 |] %25

